X: 3313
T: DE BERIOT'S 5th AIR
%R: waltz
B: James Kerr "Merry Melodies" v.3 p.34 #313
Z: 2016 John Chambers <jc:trillian.mit.edu>
M: 3/4
L: 1/4
K: G
d |\
(d2g) | (e2g) | (d2B) | (G2e) |\
(d2c) | (A2e) | (d2B) | G2 ud |\
dfg | efg | (d2B) | (G2e) |\
(d2c) | (A2d) | G3- | Gz |]
uB |\
(B2^d) | (f2B) | (B2e) | (g2B) |\
(^c2e) | (g2f) | f3 | fed |\
g3 | (f2e) | (d2B) | (G2e) |\
(d2D) | (B2A) | "_D.C. to Allegro."G3- | Gz |]

%%sep 1 1 500
%%sep 1 1 500

